X: 10596
T: Doug MacPhee's Visit To Belle Côte
R: jig
M: 6/8
K: Cmajor
|:EFE EDE|cdc cde|GAG EFG|FEF DEF|
EFE EDE|cdc edc|Bcd fed|1 c3 c3:|2 c3 cef||
|:gag ged|cdc cef|gag gec|B2d def|
gec dcd|edc AGF|EFG fed|1 c3 cef:|2 c3 c3||

